X: 1
T: Test of drone notes.
N: There are several ways to do this, none really satisfactory.
C: John Chambers <jc@trillian.mit.edu>
M: 4/4
L: 1/8
K: C
| [DD-][ED-] [FD-][GD-] [AD-][BD-] [cD-][dD-] \
| [dD-][cD-] [BD-][AD-] [GD-][FD-] [DD-][DD-] |]
V: 1 merge=2 stems=up
| DE FG AB cd | cd BA GF ED |]
V: 2 merge=1 stems=down
| D8- | D8 |]
| D8- | D8 |]
